X: 11831
T: Elmer's Tune
R: polka
M: 2/4
K: Dmajor
|:F>E|D>D FA|f/f/f fe|dF B>F|A2 G2|
[A,3/2A3/2]A/ CE|e/e/e ed|1 cB AE|G2:|2 cA Bc|d2||
|:d>f|ab a>f|ab a2|Ad ce|BA BA/f/|
ab a>f|ab a>A|Ag fe|1 Bc:|2 d2||

